svgs/light/cauldron.svg

<svg xmlns="http://www.w3.org/2000/svg" viewBox="0 0 448 512"><!-- Font Awesome Pro 5.15.3 by @fontawesome - https://fontawesome.com License - https://fontawesome.com/license (Commercial License) --><path d="M272 128c26.51 0 48-21.49 48-48s-21.49-48-48-48-48 21.49-48 48 21.49 48 48 48zm0-64c8.82 0 16 7.18 16 16s-7.18 16-16 16-16-7.18-16-16 7.18-16 16-16zm176 120v-16c0-4.42-3.58-8-8-8H8c-4.42 0-8 3.58-8 8v16c0 4.42 3.58 8 8 8h46.73C20.78 237.78 0 293.62 0 345.6c0 39.08 11.82 70.65 32 95.53V496c0 8.84 7.16 16 16 16s16-7.16 16-16v-25.34C104.66 498.69 161.28 512 224 512c62.71 0 119.34-13.31 160-41.33V496c0 8.84 7.16 16 16 16s16-7.16 16-16v-54.87c20.18-24.88 32-56.45 32-95.53 0-51.98-20.78-107.82-54.73-153.6H440c4.42 0 8-3.58 8-8zm-32 161.6C416 466.9 281.73 480 224 480S32 466.9 32 345.6c0-52.25 24.14-110.02 63.64-153.6h256.71C391.86 235.58 416 293.35 416 345.6zM160 64c17.67 0 32-14.33 32-32S177.67 0 160 0s-32 14.33-32 32 14.33 32 32 32z"/></svg>

<svg xmlns="http://www.w3.org/2000/svg" viewBox="0 0 448 512"><!--! Font Awesome Pro 6.0.0-alpha3 by @fontawesome - https://fontawesome.com License - https://fontawesome.com/license (Commercial License) --><path d="M272 128C298.5 128 320 106.5 320 80S298.5 32 272 32S224 53.5 224 80S245.5 128 272 128zM272 64C280.9 64 288 71.12 288 80S280.9 96 272 96S256 88.88 256 80S263.1 64 272 64zM448 176C448 167.2 440.8 160 432 160h-416C7.2 160 0 167.2 0 175.1S7.2 192 15.1 192H54.75C20.75 237.8 0 293.6 0 345.6c0 39 11.88 70.62 32 95.5L31.1 495.3c0 7.964 5.493 15.3 13.36 16.53C55.42 513.4 64 505.7 64 496v-25.38C104.6 498.8 161.2 512 224 512s119.4-13.25 160-41.38L383.1 495.3c0 7.964 5.493 15.3 13.36 16.53C407.4 513.4 416 505.7 416 496v-54.88c20.12-24.88 32-56.5 32-95.5C448 293.6 427.3 237.8 393.2 192H432C440.8 192 448 184.8 448 176zM416 345.6C416 466.9 281.8 480 224 480s-192-13.12-192-134.4C32 293.4 56.12 235.6 95.62 192h256.8C391.9 235.6 416 293.4 416 345.6zM160 56c13.22 0 24-10.78 24-24S173.2 8 160 8C146.8 8 136 18.78 136 32S146.8 56 160 56z"/></svg>
